X:0900
T:Reel of Fife.
M:C
L:1/8
Q:1/2=96
I: :: :|
Z:Jack Campin * www.campin.me.uk * 2009
K:D
A>dd>e f>ed>A|F>Ad>A GF E2 |A>dd>e f>ed>A| A>B````````A>F       D2 D2:|
d>efg  a>da>d|b>gf>g a>fe>d|d>ef>g a>fed |(A/B/A/G/) (F/G/F/E/) D2 D2:|

